X: 1
T: Grayton Beach
M: 4/4
L: 1/8
R: reel
K: Dmaj
|:AD ~D2 AGFG|Adfd edBd|AF ~F2 DEFA|dAGF E3 F|
D2 FD AGFG|Addc d3 e|fefd (3efg ag|1 fdec d3 B:|2 fdec defg||
|:abag fgaf|eA ~A2 efge|fefd (3efg ag|fdec defg|
abag fgaf|gefe dB (3Bcd|ABde f2 ag|1 fdec defg:|2 fdec d3 B||
